assets/icons/pc_specs/psu.svg

<svg width="32" height="32" viewBox="0 0 32 32" fill="none" xmlns="http://www.w3.org/2000/svg">
<path d="M19 10H25C25.5522 10 26 9.55231 26 9V6.5C26 6.23481 25.8946 5.98044 25.7071 5.79294L24.2071 4.29294C24.0196 4.10537 23.7652 4 23.5 4H20.5C20.2348 4 19.9804 4.10537 19.7929 4.29294L18.2929 5.79294C18.1054 5.9805 18 6.23481 18 6.5V9C18 9.55231 18.4478 10 19 10ZM20 6.91419L20.9142 6H23.0858L24 6.91419V8H20V6.91419Z" fill="#2B398F"/>
<path d="M19 10H25C25.5522 10 26 9.55231 26 9V6.5C26 6.23481 25.8946 5.98044 25.7071 5.79294L24.2071 4.29294C24.0196 4.10537 23.7652 4 23.5 4H20.5C20.2348 4 19.9804 4.10537 19.7929 4.29294L18.2929 5.79294C18.1054 5.9805 18 6.23481 18 6.5V9C18 9.55231 18.4478 10 19 10ZM20 6.91419L20.9142 6H23.0858L24 6.91419V8H20V6.91419Z" fill="#3749BB"/>
<path d="M19 18H25C25.5522 18 26 17.5523 26 17V14.5C26 14.2348 25.8946 13.9804 25.7071 13.7929L24.2071 12.2929C24.0196 12.1054 23.7652 12 23.5 12H20.5C20.2348 12 19.9804 12.1054 19.7929 12.2929L18.2929 13.7929C18.1054 13.9805 18 14.2348 18 14.5V17C18 17.5523 18.4478 18 19 18ZM20 14.9142L20.9142 14H23.0858L24 14.9142V16H20V14.9142Z" fill="#2B398F"/>
<path d="M19 18H25C25.5522 18 26 17.5523 26 17V14.5C26 14.2348 25.8946 13.9804 25.7071 13.7929L24.2071 12.2929C24.0196 12.1054 23.7652 12 23.5 12H20.5C20.2348 12 19.9804 12.1054 19.7929 12.2929L18.2929 13.7929C18.1054 13.9805 18 14.2348 18 14.5V17C18 17.5523 18.4478 18 19 18ZM20 14.9142L20.9142 14H23.0858L24 14.9142V16H20V14.9142Z" fill="#3749BB"/>
<path d="M4.0001 9.99094C3.99591 13.3285 6.7126 16.0001 9.9991 16.0001C13.227 16.0001 15.9732 13.4158 15.9998 10.0091C16.0041 6.66838 13.2838 4 9.99997 4C6.77722 4 4.02672 6.58025 4.0001 9.99094ZM6.44385 11.8279C7.63016 12.1697 8.64928 11.9916 9.70422 11.3846C10.0979 12.1054 10.1756 12.7952 9.47841 13.9649C8.1546 13.7916 7.03285 12.9691 6.44385 11.8279ZM11.8285 13.5557C12.2249 12.1799 11.8698 11.1391 11.3845 10.2957C12.1053 9.902 12.7952 9.82444 13.9648 10.5215C13.7917 11.8451 12.9694 12.9666 11.8285 13.5557ZM13.5557 8.17144C12.1799 7.77506 11.139 8.13013 10.2957 8.61544C9.90197 7.89463 9.82435 7.20481 10.5215 6.03512C11.8451 6.20831 12.9666 7.03056 13.5557 8.17144ZM8.17141 6.44425C7.77503 7.82006 8.1301 8.86094 8.61541 9.70425C7.8946 10.0979 7.20472 10.1755 6.0351 9.47844C6.20828 8.15487 7.03053 7.03338 8.17141 6.44425Z" fill="#2B398F"/>
<path d="M4.0001 9.99094C3.99591 13.3285 6.7126 16.0001 9.9991 16.0001C13.227 16.0001 15.9732 13.4158 15.9998 10.0091C16.0041 6.66838 13.2838 4 9.99997 4C6.77722 4 4.02672 6.58025 4.0001 9.99094ZM6.44385 11.8279C7.63016 12.1697 8.64928 11.9916 9.70422 11.3846C10.0979 12.1054 10.1756 12.7952 9.47841 13.9649C8.1546 13.7916 7.03285 12.9691 6.44385 11.8279ZM11.8285 13.5557C12.2249 12.1799 11.8698 11.1391 11.3845 10.2957C12.1053 9.902 12.7952 9.82444 13.9648 10.5215C13.7917 11.8451 12.9694 12.9666 11.8285 13.5557ZM13.5557 8.17144C12.1799 7.77506 11.139 8.13013 10.2957 8.61544C9.90197 7.89463 9.82435 7.20481 10.5215 6.03512C11.8451 6.20831 12.9666 7.03056 13.5557 8.17144ZM8.17141 6.44425C7.77503 7.82006 8.1301 8.86094 8.61541 9.70425C7.8946 10.0979 7.20472 10.1755 6.0351 9.47844C6.20828 8.15487 7.03053 7.03338 8.17141 6.44425Z" fill="#3749BB"/>
<path d="M31 29H29V27H31C31.5522 27 32 26.5523 32 26C32 25.4477 31.5522 25 31 25H29C29 24.4477 28.5522 24 28 24H26.0625C24.4157 24 23.0625 25.3371 23.0625 27.0031C22.9832 26.9982 23.75 27 8.5 27C7.1215 27 6 25.8785 6 24.5V22H29C29.5522 22 30 21.5523 30 21V1C30 0.447688 29.5522 0 29 0H1C0.44775 0 0 0.447688 0 1V21C0 21.5523 0.44775 22 1 22H4V24.5C4 26.9813 6.01869 29 8.5 29C21.1969 29 23.0625 28.9936 23.0625 29C23.0625 30.6542 24.4083 32 26.0625 32H28C28.5522 32 29 31.5523 29 31H31C31.5522 31 32 30.5523 32 30C32 29.4477 31.5522 29 31 29ZM2 20V2H28V20H6V18C6 17.4477 5.55225 17 5 17C4.44775 17 4 17.4477 4 18V20H2ZM26.0625 30C25.5111 30 25.0625 29.5514 25.0625 29V27C25.0625 26.4486 25.5111 26 26.0625 26H27V30H26.0625Z" fill="#2B398F"/>
<path d="M31 29H29V27H31C31.5522 27 32 26.5523 32 26C32 25.4477 31.5522 25 31 25H29C29 24.4477 28.5522 24 28 24H26.0625C24.4157 24 23.0625 25.3371 23.0625 27.0031C22.9832 26.9982 23.75 27 8.5 27C7.1215 27 6 25.8785 6 24.5V22H29C29.5522 22 30 21.5523 30 21V1C30 0.447688 29.5522 0 29 0H1C0.44775 0 0 0.447688 0 1V21C0 21.5523 0.44775 22 1 22H4V24.5C4 26.9813 6.01869 29 8.5 29C21.1969 29 23.0625 28.9936 23.0625 29C23.0625 30.6542 24.4083 32 26.0625 32H28C28.5522 32 29 31.5523 29 31H31C31.5522 31 32 30.5523 32 30C32 29.4477 31.5522 29 31 29ZM2 20V2H28V20H6V18C6 17.4477 5.55225 17 5 17C4.44775 17 4 17.4477 4 18V20H2ZM26.0625 30C25.5111 30 25.0625 29.5514 25.0625 29V27C25.0625 26.4486 25.5111 26 26.0625 26H27V30H26.0625Z" fill="#3749BB"/>
</svg>

<svg xmlns="http://www.w3.org/2000/svg" fill="none" viewBox="0 0 32 32"><path fill="#2B398F" d="M19 10h6c.5522 0 1-.4477 1-1V6.5a1 1 0 0 0-.2929-.707l-1.5-1.5A.9999.9999 0 0 0 23.5 4h-3a.9999.9999 0 0 0-.7071.293l-1.5 1.5A1.0001 1.0001 0 0 0 18 6.5V9c0 .5523.4478 1 1 1Zm1-3.0858L20.9142 6h2.1716L24 6.9142V8h-4V6.9142Z"/><path fill="#3749BB" d="M19 10h6c.5522 0 1-.4477 1-1V6.5a1 1 0 0 0-.2929-.707l-1.5-1.5A.9999.9999 0 0 0 23.5 4h-3a.9999.9999 0 0 0-.7071.293l-1.5 1.5A1.0001 1.0001 0 0 0 18 6.5V9c0 .5523.4478 1 1 1Zm1-3.0858L20.9142 6h2.1716L24 6.9142V8h-4V6.9142Z"/><path fill="#2B398F" d="M19 18h6c.5522 0 1-.4477 1-1v-2.5c0-.2652-.1054-.5196-.2929-.7071l-1.5-1.5A1.0001 1.0001 0 0 0 23.5 12h-3c-.2652 0-.5196.1054-.7071.2929l-1.5 1.5A1.0003 1.0003 0 0 0 18 14.5V17c0 .5523.4478 1 1 1Zm1-3.0858L20.9142 14h2.1716l.9142.9142V16h-4v-1.0858Z"/><path fill="#3749BB" d="M19 18h6c.5522 0 1-.4477 1-1v-2.5c0-.2652-.1054-.5196-.2929-.7071l-1.5-1.5A1.0001 1.0001 0 0 0 23.5 12h-3c-.2652 0-.5196.1054-.7071.2929l-1.5 1.5A1.0003 1.0003 0 0 0 18 14.5V17c0 .5523.4478 1 1 1Zm1-3.0858L20.9142 14h2.1716l.9142.9142V16h-4v-1.0858Z"/><path fill="#2B398F" d="M4.0001 9.991C3.9959 13.3284 6.7126 16 9.9991 16c3.2279 0 5.9741-2.5843 6.0007-5.991C16.0041 6.6684 13.2838 4 10 4 6.7772 4 4.0267 6.5803 4 9.991Zm2.4438 1.8369c1.1863.3418 2.2054.1637 3.2603-.4433.3937.7208.4714 1.4106-.2258 2.5803-1.3238-.1733-2.4456-.9958-3.0346-2.137Zm5.3846 1.7278c.3964-1.3758.0413-2.4166-.444-3.26.7208-.3937 1.4107-.4713 2.5803.2258-.1731 1.3236-.9954 2.4451-2.1363 3.0342Zm1.7272-5.3843c-1.3758-.3963-2.4167-.0413-3.26.444-.3937-.7208-.4713-1.4106.2258-2.5803 1.3236.1732 2.4451.9955 3.0342 2.1363ZM8.1714 6.4443c-.3964 1.3758-.0413 2.4166.444 3.26-.7208.3936-1.4107.4712-2.5803-.2259.1732-1.3235.9954-2.445 2.1363-3.0342Z"/><path fill="#3749BB" d="M4.0001 9.991C3.9959 13.3284 6.7126 16 9.9991 16c3.2279 0 5.9741-2.5843 6.0007-5.991C16.0041 6.6684 13.2838 4 10 4 6.7772 4 4.0267 6.5803 4 9.991Zm2.4438 1.8369c1.1863.3418 2.2054.1637 3.2603-.4433.3937.7208.4714 1.4106-.2258 2.5803-1.3238-.1733-2.4456-.9958-3.0346-2.137Zm5.3846 1.7278c.3964-1.3758.0413-2.4166-.444-3.26.7208-.3937 1.4107-.4713 2.5803.2258-.1731 1.3236-.9954 2.4451-2.1363 3.0342Zm1.7272-5.3843c-1.3758-.3963-2.4167-.0413-3.26.444-.3937-.7208-.4713-1.4106.2258-2.5803 1.3236.1732 2.4451.9955 3.0342 2.1363ZM8.1714 6.4443c-.3964 1.3758-.0413 2.4166.444 3.26-.7208.3936-1.4107.4712-2.5803-.2259.1732-1.3235.9954-2.445 2.1363-3.0342Z"/><path fill="#2B398F" d="M31 29h-2v-2h2c.5522 0 1-.4477 1-1s-.4478-1-1-1h-2c0-.5523-.4478-1-1-1h-1.9375c-1.6468 0-3 1.3371-3 3.0031C22.9832 26.9982 23.75 27 8.5 27 7.1215 27 6 25.8785 6 24.5V22h23c.5522 0 1-.4477 1-1V1c0-.5523-.4478-1-1-1H1C.4477 0 0 .4477 0 1v20c0 .5523.4477 1 1 1h3v2.5C4 26.9813 6.0187 29 8.5 29c12.6969 0 14.5625-.0064 14.5625 0 0 1.6542 1.3458 3 3 3H28c.5522 0 1-.4477 1-1h2c.5522 0 1-.4477 1-1s-.4478-1-1-1ZM2 20V2h26v18H6v-2c0-.5523-.4478-1-1-1s-1 .4477-1 1v2H2Zm24.0625 10c-.5514 0-1-.4486-1-1v-2c0-.5514.4486-1 1-1H27v4h-.9375Z"/><path fill="#3749BB" d="M31 29h-2v-2h2c.5522 0 1-.4477 1-1s-.4478-1-1-1h-2c0-.5523-.4478-1-1-1h-1.9375c-1.6468 0-3 1.3371-3 3.0031C22.9832 26.9982 23.75 27 8.5 27 7.1215 27 6 25.8785 6 24.5V22h23c.5522 0 1-.4477 1-1V1c0-.5523-.4478-1-1-1H1C.4477 0 0 .4477 0 1v20c0 .5523.4477 1 1 1h3v2.5C4 26.9813 6.0187 29 8.5 29c12.6969 0 14.5625-.0064 14.5625 0 0 1.6542 1.3458 3 3 3H28c.5522 0 1-.4477 1-1h2c.5522 0 1-.4477 1-1s-.4478-1-1-1ZM2 20V2h26v18H6v-2c0-.5523-.4478-1-1-1s-1 .4477-1 1v2H2Zm24.0625 10c-.5514 0-1-.4486-1-1v-2c0-.5514.4486-1 1-1H27v4h-.9375Z"/></svg>
